images/icons/phone.svg

<svg width="40" height="40" viewBox="0 0 40 40" xmlns="http://www.w3.org/2000/svg"><path d="M39.98 31.56c.085.65-.112 1.216-.592 1.694l-5.632 5.59c-.254.283-.586.523-.995.72-.41.196-.81.323-1.206.38-.028 0-.113.008-.254.02-.14.014-.325.022-.55.022-.537 0-1.405-.092-2.604-.275-1.2-.182-2.668-.634-4.404-1.353-1.737-.72-3.706-1.8-5.907-3.24-2.202-1.44-4.545-3.416-7.03-5.928-1.976-1.948-3.613-3.813-4.912-5.59-1.298-1.78-2.343-3.424-3.134-4.934-.792-1.51-1.384-2.88-1.78-4.108C.586 13.33.32 12.272.178 11.382c-.142-.89-.198-1.588-.17-2.096.028-.51.042-.79.042-.847.056-.397.183-.798.38-1.208.198-.41.438-.74.72-.995L6.782.605C7.177.21 7.63.012 8.137.012c.367 0 .692.106.974.318.283.21.523.473.72.783l4.532 8.596c.253.45.324.945.21 1.48-.112.537-.352.99-.72 1.356L11.78 14.62c-.057.058-.106.15-.148.276-.042.127-.063.233-.063.318.113.593.367 1.27.762 2.032.338.678.86 1.503 1.566 2.477.706.975 1.708 2.096 3.007 3.367 1.27 1.3 2.4 2.307 3.388 3.027.988.72 1.814 1.25 2.478 1.588.663.338 1.17.543 1.524.613l.53.105c.056 0 .147-.02.274-.062.127-.04.22-.09.275-.147l2.415-2.455c.508-.453 1.1-.68 1.778-.68.48 0 .86.086 1.144.256h.042l8.172 4.828c.593.367.946.834 1.06 1.4z" fill="currentColor"/></svg>

<?xml version="1.0" encoding="UTF-8" standalone="no"?>
<svg width="40px" height="40px" viewBox="0 0 40 40" version="1.1" xmlns="http://www.w3.org/2000/svg" xmlns:xlink="http://www.w3.org/1999/xlink" xmlns:sketch="http://www.bohemiancoding.com/sketch/ns">
    <defs></defs>
    <g id="phone" sketch:type="MSLayerGroup">
        <path d="M39.981,31.561 C40.065,32.209 39.868,32.776 39.388,33.254 L33.756,38.844 C33.502,39.127 33.17,39.367 32.761,39.563 C32.351,39.76 31.949,39.887 31.554,39.944 C31.526,39.944 31.441,39.952 31.3,39.965 C31.159,39.978 30.975,39.986 30.75,39.986 C30.213,39.986 29.345,39.894 28.146,39.711 C26.947,39.528 25.478,39.076 23.742,38.357 C22.005,37.636 20.036,36.556 17.835,35.117 C15.633,33.678 13.29,31.701 10.805,29.189 C8.829,27.242 7.192,25.377 5.893,23.599 C4.595,21.82 3.55,20.176 2.759,18.666 C1.968,17.155 1.376,15.786 0.981,14.558 C0.585,13.33 0.318,12.272 0.177,11.382 C0.035,10.493 -0.021,9.794 0.007,9.286 C0.035,8.777 0.049,8.495 0.049,8.439 C0.106,8.043 0.233,7.642 0.43,7.232 C0.628,6.823 0.868,6.491 1.15,6.237 L6.782,0.605 C7.177,0.21 7.629,0.012 8.137,0.012 C8.504,0.012 8.829,0.118 9.111,0.33 C9.393,0.541 9.633,0.803 9.831,1.113 L14.362,9.709 C14.615,10.16 14.686,10.655 14.573,11.191 C14.46,11.727 14.22,12.179 13.853,12.546 L11.778,14.621 C11.721,14.678 11.672,14.769 11.63,14.896 C11.588,15.023 11.567,15.129 11.567,15.214 C11.68,15.807 11.934,16.484 12.329,17.246 C12.668,17.924 13.19,18.749 13.896,19.723 C14.602,20.698 15.604,21.819 16.903,23.09 C18.174,24.389 19.302,25.397 20.291,26.117 C21.278,26.838 22.104,27.367 22.768,27.705 C23.431,28.043 23.939,28.248 24.292,28.318 L24.821,28.423 C24.878,28.423 24.969,28.403 25.096,28.361 C25.223,28.319 25.315,28.269 25.371,28.213 L27.785,25.758 C28.293,25.305 28.886,25.078 29.563,25.078 C30.043,25.078 30.424,25.164 30.707,25.334 L30.749,25.334 L38.922,30.162 C39.515,30.529 39.868,30.996 39.981,31.561 L39.981,31.561 Z" id="Shape" sketch:type="MSShapeGroup" fill="currentColor"></path>
    </g>
</svg>
